docs/img/star-green.svg

<svg width="306" height="307" viewBox="0 0 306 307" fill="none" xmlns="http://www.w3.org/2000/svg">
<path d="M306 153.519L252.268 180.229L285.5 230.278L225.645 226.42L229.528 286.471L179.605 253.13L152.981 307L126.358 253.13L76.4719 286.471L80.318 226.42L20.4622 230.278L53.6946 180.229L0 153.519L53.6946 126.808L20.4622 76.7219L80.318 80.5805L76.4719 20.5666L126.358 53.8702L152.981 0L179.605 53.8702L229.528 20.5666L225.645 80.5805L285.5 76.7219L252.268 126.808L306 153.519Z" fill="#008234"/>
</svg>

<svg width="306" height="307" fill="none" xmlns="http://www.w3.org/2000/svg"><path d="m306 153.519-53.732 26.71 33.232 50.049-59.855-3.858 3.883 60.051-49.923-33.341L152.981 307l-26.623-53.87-49.886 33.341 3.846-60.051-59.856 3.858 33.233-50.049L0 153.519l53.695-26.711-33.233-50.086 59.856 3.859-3.846-60.014 49.886 33.303L152.981 0l26.624 53.87 49.923-33.303-3.883 60.014 59.855-3.86-33.232 50.087L306 153.519Z" fill="#008234"/></svg>
